svgs/1F92C.svg

<svg xmlns="http://www.w3.org/2000/svg" xmlns:xlink="http://www.w3.org/1999/xlink" preserveAspectRatio="none" viewBox="0 0 72 72"><defs><linearGradient id="a" x1="33.6" x2="33.6" y1="34.788" y2="5.712" gradientUnits="userSpaceOnUse" spreadMethod="pad"><stop offset="0%" stop-color="#FCC21B"/><stop offset="100%" stop-color="#E75625"/></linearGradient><path id="b" fill="url(#a)" d="M35.85 4.85q-22.3 0-31.05 20.65Q0 36.75 0 51.95q0 5.85 10.5 9.95 10.5 4.15 25.35 4.15 14.9 0 25.4-4.15 10.5-4.1 10.5-9.95 0-15.2-4.8-26.45Q58.2 4.85 35.85 4.85z"/><g id="c"><path fill="#2F2F2F" d="M48 41.05q-.15-.05-.25-.05l-23.65.55q-.5 0-1.8.05-1.65.1-3.45 1.95-1.9 1.85-1.85 4.6.1 2.7 1.9 4.55 1.8 1.7 3.5 1.7h2q.3 0 .5-.05l22.9-.5q.85.05 2.55-.05 1.7-.05 3.45-1.85 1.65-1.9 1.65-4.65-.05-2.75-2-4.5Q51.5 41 49.9 41q-1.3 0-1.9.05m1.65 1.55h.8L50.1 45l1.4-.05v.75l-1.55.05-.3 1.9 1.55-.1.05.75-1.7.1-.4 2.4h-.8l.4-2.4-1.6.1-.35 2.35H46l.3-2.35-1.45.05v-.75l1.55-.1.35-1.8-1.55.05v-.75l1.6-.1.4-2.4.8-.05-.35 2.45 1.6-.1.4-2.4m-7.9.2q1.1-.05 1.7.45.65.5.7 1.45 0 .4-.1.7-.1.35-.3.65-.25.3-.9.85-.5.5-.7.8-.1.35-.1.85v.2l-.8.05v-.3q-.05-.7.15-1.15.2-.4.7-.85.6-.5.75-.75.2-.25.3-.45.05-.25.05-.55 0-.55-.4-.8-.35-.3-1.05-.25-.45 0-.85.1-.4.15-.9.4l-.45-.8q1.05-.55 2.2-.6M27.5 45.85q.55-1.15 1.6-1.8 1.15-.7 2.55-.7 1.15-.05 2.15.4.9.4 1.5 1.35.5.9.55 2.15.05.75-.15 1.4-.25.65-.7 1.05-.4.4-1 .4-.5 0-.75-.25-.4-.2-.5-.7l-.05.05q-.15.45-.55.75-.45.25-1 .3-.85.05-1.35-.55-.5-.55-.55-1.55 0-.75.25-1.3.3-.6.8-.95.6-.35 1.3-.4.35 0 .85.1.5 0 .9.15l-.05 2.75q.05.95.75.9.55 0 .8-.6t.2-1.55q0-1-.45-1.75t-1.15-1.1q-.8-.4-1.8-.35-1.2.05-2.1.6-.85.55-1.3 1.5-.5.95-.45 2.25.1 1.65 1 2.5.9.9 2.6.8 1.2-.05 2.45-.55v.8q-1.1.45-2.4.5-2.05.1-3.2-.95-1.15-1.05-1.25-3.05-.05-1.45.5-2.6m9.8-2.8l1.2-.05-.05 5.9h-.7l-.45-5.85m.4 8.1q-.25-.2-.25-.55-.05-.35.2-.55.15-.25.5-.25t.5.25q.2.1.25.45.05.35-.2.65-.15.2-.55.2-.3 0-.45-.2m3.6-.1q-.25-.2-.25-.6-.05-.75.65-.8.4 0 .5.2.25.2.25.6 0 .35-.15.55-.2.2-.55.25-.3 0-.45-.2m-18.8-7.9l.7-.05.05 1.05q1.05-.05 2.05.35l-.3.8q-.9-.35-1.7-.35l.1 2.35q.9.25 1.35.45.45.3.65.65.2.3.25.8 0 .75-.5 1.25-.55.55-1.6.7l.05 1.25-.75.05-.05-1.2q-.6 0-1.2-.05-.6-.1-1-.25v-.9q.4.15 1.05.3.6.1 1.15.1l-.1-2.4q-1.15-.35-1.7-.75-.45-.5-.5-1.25-.05-.75.5-1.25.6-.5 1.5-.65v-1m1.85 5.55q-.3-.25-.95-.45l.15 2.1q1.1-.25 1.1-1.05-.05-.4-.3-.6m-2.6-3.35q-.2.25-.2.65t.2.65q.3.2.9.4l-.1-2.1q-.5.1-.8.4m10.7 1q-.4-.15-.85-.1-.7 0-1.1.55-.4.5-.35 1.35.1 1.45 1.15 1.35 1.1-.05 1.15-1.75v-1.4m15.1-.5l-.35 1.85 1.65-.05.3-1.9-1.6.1z"/><path fill="#FFF" d="M23.2 43.1l-.7.05v1q-.9.15-1.5.65-.55.5-.5 1.25.05.75.5 1.25.55.4 1.7.75l.1 2.4q-.55 0-1.15-.1-.65-.15-1.05-.3v.9q.4.15 1 .25.6.05 1.2.05l.05 1.2.75-.05-.05-1.25q1.05-.15 1.6-.7.5-.5.5-1.25-.05-.5-.25-.8-.2-.35-.65-.65-.45-.2-1.35-.45l-.1-2.35q.8 0 1.7.35l.3-.8q-1-.4-2.05-.35l-.05-1.05M21.55 46q0-.4.2-.65.3-.3.8-.4l.1 2.1q-.6-.2-.9-.4-.2-.25-.2-.65m1.85 2.25q.65.2.95.45.25.2.3.6 0 .8-1.1 1.05l-.15-2.1m17.65 2.2q0 .4.25.6.15.2.45.2.35-.05.55-.25.15-.2.15-.55 0-.4-.25-.6-.1-.2-.5-.2-.7.05-.65.8m-3.6.15q0 .35.25.55.15.2.45.2.4 0 .55-.2.25-.3.2-.65-.05-.35-.25-.45-.15-.25-.5-.25t-.5.25q-.25.2-.2.55M38.5 43l-1.2.05.45 5.85h.7l.05-5.9m-9.4 1.05q-1.05.65-1.6 1.8t-.5 2.6q.1 2 1.25 3.05 1.15 1.05 3.2.95 1.3-.05 2.4-.5v-.8q-1.25.5-2.45.55-1.7.1-2.6-.8-.9-.85-1-2.5-.05-1.3.45-2.25.45-.95 1.3-1.5.9-.55 2.1-.6 1-.05 1.8.35.7.35 1.15 1.1.45.75.45 1.75.05.95-.2 1.55-.25.6-.8.6-.7.05-.75-.9l.05-2.75q-.4-.15-.9-.15-.5-.1-.85-.1-.7.05-1.3.4-.5.35-.8.95-.25.55-.25 1.3.05 1 .55 1.55.5.6 1.35.55.55-.05 1-.3.4-.3.55-.75l.05-.05q.1.5.5.7.25.25.75.25.6 0 1-.4.45-.4.7-1.05.2-.65.15-1.4-.05-1.25-.55-2.15-.6-.95-1.5-1.35-1-.45-2.15-.4-1.4 0-2.55.7m2.5 2.2q.45-.05.85.1v1.4q-.05 1.7-1.15 1.75-1.05.1-1.15-1.35-.05-.85.35-1.35.4-.55 1.1-.55m11.85-3q-.6-.5-1.7-.45-1.15.05-2.2.6l.45.8q.5-.25.9-.4.4-.1.85-.1.7-.05 1.05.25.4.25.4.8 0 .3-.05.55-.1.2-.3.45-.15.25-.75.75-.5.45-.7.85-.2.45-.15 1.15v.3l.8-.05v-.2q0-.5.1-.85.2-.3.7-.8.65-.55.9-.85.2-.3.3-.65.1-.3.1-.7-.05-.95-.7-1.45m7-.65h-.8l-.4 2.4-1.6.1.35-2.45-.8.05-.4 2.4-1.6.1v.75l1.55-.05-.35 1.8-1.55.1v.75l1.45-.05-.3 2.35h.8l.35-2.35 1.6-.1-.4 2.4h.8l.4-2.4 1.7-.1-.05-.75-1.55.1.3-1.9 1.55-.05v-.75l-1.4.05.35-2.4m-3.25 5.1l.35-1.85 1.6-.1-.3 1.9-1.65.05z"/></g><path id="e" fill="#2F2F2F" d="M57.2 30.9q-.7-.3-1.45 0l-11.7 5.35q-.75.4-1.55.35-1.05 0-1.55-.55-.05-.1-.65-1.1-.4-.75-1.1-.5-.5.25-.6 1.2-.1.65-.05 1.2.2 1.6.85 2.9.8 1.55 1.7 2.3 1.35 1.35 3.4 2.05 2.1.7 4.35.6 1.8-.05 3.6-.8 4.3-1.8 5.7-5.7 1.1-3.2.05-6.25-.25-.75-1-1.05z"/><path id="f" fill="#2F2F2F" d="M13.25 31.95q-1.1 3.05.05 6.25 1.4 3.9 5.7 5.7 1.8.75 3.55.8 2.25.1 4.4-.6 2.1-.75 3.4-2.05Q31.4 41 32 39.75q.65-1.3.9-2.9.05-.55 0-1.2-.15-.95-.65-1.2-.7-.25-1.1.5-.2.35-.65 1.1-.55.55-1.55.55-.5.05-1.05-.15L15.7 30.9q-.75-.3-1.5 0-.7.3-.95 1.05z"/><path id="d" fill="none" stroke="#2F2F2F" stroke-linecap="round" stroke-linejoin="round" stroke-width="1" d="M24.1 41.55L47.75 41q.1 0 .25.05.6-.05 1.9-.05 1.6 0 3.55 1.8 1.95 1.75 2 4.5 0 2.75-1.65 4.65-1.75 1.8-3.45 1.85-1.7.1-2.55.05l-22.9.5q-.2.05-.5.05h-2q-1.7 0-3.5-1.7-1.8-1.85-1.9-4.55-.05-2.75 1.85-4.6 1.8-1.85 3.45-1.95 1.3-.05 1.8-.05z"/></defs><use xlink:href="#b"/><g><use xlink:href="#c"/><use xlink:href="#d"/></g><use transform="matrix(.91302 0 0 .91302 3.15 -4.05)" xlink:href="#e"/><use transform="matrix(.91302 0 0 .91302 3.15 -4.05)" xlink:href="#f"/></svg>

<svg xmlns="http://www.w3.org/2000/svg" version="1.1" xmlns:xlink="http://www.w3.org/1999/xlink" preserveAspectRatio="none" x="0px" y="0px" width="72px" height="72px" viewBox="0 0 72 72">
<defs>
<linearGradient id="Gradient_1" gradientUnits="userSpaceOnUse" x1="33.6" y1="34.7875" x2="33.6" y2="5.712499999999999" spreadMethod="pad">
<stop  offset="0%" stop-color="#FCC21B"/>

<stop  offset="100%" stop-color="#E75625"/>
</linearGradient>

<g id="Layer3_0_FILL">
<path fill="url(#Gradient_1)" stroke="none" d="
M 35.85 4.85
Q 13.55 4.85 4.8 25.5 0 36.75 0 51.95 0 57.8 10.5 61.9 21 66.05 35.85 66.05 50.75 66.05 61.25 61.9 71.75 57.8 71.75 51.95 71.75 36.75 66.95 25.5 58.2 4.85 35.85 4.85 Z"/>
</g>

<g id="Layer2_0_FILL">
<path fill="#2F2F2F" stroke="none" d="
M 48 41.05
Q 47.85 41 47.75 41
L 24.1 41.55
Q 23.6 41.55 22.3 41.6 20.65 41.7 18.85 43.55 16.95 45.4 17 48.15 17.1 50.85 18.9 52.7 20.7 54.4 22.4 54.4 23.6 54.4 24.4 54.4 24.7 54.4 24.9 54.35
L 47.8 53.85
Q 48.65 53.9 50.35 53.8 52.05 53.75 53.8 51.95 55.45 50.05 55.45 47.3 55.4 44.55 53.45 42.8 51.5 41 49.9 41 48.6 41 48 41.05
M 49.65 42.6
L 50.45 42.6 50.1 45 51.5 44.95 51.5 45.7 49.95 45.75 49.65 47.65 51.2 47.55 51.25 48.3 49.55 48.4 49.15 50.8 48.35 50.8 48.75 48.4 47.15 48.5 46.8 50.85 46 50.85 46.3 48.5 44.85 48.55 44.85 47.8 46.4 47.7 46.75 45.9 45.2 45.95 45.2 45.2 46.8 45.1 47.2 42.7 48 42.65 47.65 45.1 49.25 45 49.65 42.6
M 41.75 42.8
Q 42.85 42.75 43.45 43.25 44.1 43.75 44.15 44.7 44.15 45.1 44.05 45.4 43.95 45.75 43.75 46.05 43.5 46.35 42.85 46.9 42.35 47.4 42.15 47.7 42.05 48.05 42.05 48.55
L 42.05 48.75 41.25 48.8 41.25 48.5
Q 41.2 47.8 41.4 47.35 41.6 46.95 42.1 46.5 42.7 46 42.85 45.75 43.05 45.5 43.15 45.3 43.2 45.05 43.2 44.75 43.2 44.2 42.8 43.95 42.45 43.65 41.75 43.7 41.3 43.7 40.9 43.8 40.5 43.95 40 44.2
L 39.55 43.4
Q 40.6 42.85 41.75 42.8
M 27.5 45.85
Q 28.05 44.7 29.1 44.05 30.25 43.35 31.65 43.35 32.8 43.3 33.8 43.75 34.7 44.15 35.3 45.1 35.8 46 35.85 47.25 35.9 48 35.7 48.65 35.45 49.3 35 49.7 34.6 50.1 34 50.1 33.5 50.1 33.25 49.85 32.85 49.65 32.75 49.15
L 32.7 49.2
Q 32.55 49.65 32.15 49.95 31.7 50.2 31.15 50.25 30.3 50.3 29.8 49.7 29.3 49.15 29.25 48.15 29.25 47.4 29.5 46.85 29.8 46.25 30.3 45.9 30.9 45.55 31.6 45.5 31.95 45.5 32.45 45.6 32.95 45.6 33.35 45.75
L 33.3 48.5
Q 33.35 49.45 34.05 49.4 34.6 49.4 34.85 48.8 35.1 48.2 35.05 47.25 35.05 46.25 34.6 45.5 34.15 44.75 33.45 44.4 32.65 44 31.65 44.05 30.45 44.1 29.55 44.65 28.7 45.2 28.25 46.15 27.75 47.1 27.8 48.4 27.9 50.05 28.8 50.9 29.7 51.8 31.4 51.7 32.6 51.65 33.85 51.15
L 33.85 51.95
Q 32.75 52.4 31.45 52.45 29.4 52.55 28.25 51.5 27.1 50.45 27 48.45 26.95 47 27.5 45.85
M 37.3 43.05
L 38.5 43 38.45 48.9 37.75 48.9 37.3 43.05
M 37.7 51.15
Q 37.45 50.95 37.45 50.6 37.4 50.25 37.65 50.05 37.8 49.8 38.15 49.8 38.5 49.8 38.65 50.05 38.85 50.15 38.9 50.5 38.95 50.85 38.7 51.15 38.55 51.35 38.15 51.35 37.85 51.35 37.7 51.15
M 41.3 51.05
Q 41.05 50.85 41.05 50.45 41 49.7 41.7 49.65 42.1 49.65 42.2 49.85 42.45 50.05 42.45 50.45 42.45 50.8 42.3 51 42.1 51.2 41.75 51.25 41.45 51.25 41.3 51.05
M 22.5 43.15
L 23.2 43.1 23.25 44.15
Q 24.3 44.1 25.3 44.5
L 25 45.3
Q 24.1 44.95 23.3 44.95
L 23.4 47.3
Q 24.3 47.55 24.75 47.75 25.2 48.05 25.4 48.4 25.6 48.7 25.65 49.2 25.65 49.95 25.15 50.45 24.6 51 23.55 51.15
L 23.6 52.4 22.85 52.45 22.8 51.25
Q 22.2 51.25 21.6 51.2 21 51.1 20.6 50.95
L 20.6 50.05
Q 21 50.2 21.65 50.35 22.25 50.45 22.8 50.45
L 22.7 48.05
Q 21.55 47.7 21 47.3 20.55 46.8 20.5 46.05 20.45 45.3 21 44.8 21.6 44.3 22.5 44.15
L 22.5 43.15
M 24.35 48.7
Q 24.05 48.45 23.4 48.25
L 23.55 50.35
Q 24.65 50.1 24.65 49.3 24.6 48.9 24.35 48.7
M 21.75 45.35
Q 21.55 45.6 21.55 46 21.55 46.4 21.75 46.65 22.05 46.85 22.65 47.05
L 22.55 44.95
Q 22.05 45.05 21.75 45.35
M 32.45 46.35
Q 32.05 46.2 31.6 46.25 30.9 46.25 30.5 46.8 30.1 47.3 30.15 48.15 30.25 49.6 31.3 49.5 32.4 49.45 32.45 47.75
L 32.45 46.35
M 47.55 45.85
L 47.2 47.7 48.85 47.65 49.15 45.75 47.55 45.85 Z"/>

<path fill="#FFFFFF" stroke="none" d="
M 23.2 43.1
L 22.5 43.15 22.5 44.15
Q 21.6 44.3 21 44.8 20.45 45.3 20.5 46.05 20.55 46.8 21 47.3 21.55 47.7 22.7 48.05
L 22.8 50.45
Q 22.25 50.45 21.65 50.35 21 50.2 20.6 50.05
L 20.6 50.95
Q 21 51.1 21.6 51.2 22.2 51.25 22.8 51.25
L 22.85 52.45 23.6 52.4 23.55 51.15
Q 24.6 51 25.15 50.45 25.65 49.95 25.65 49.2 25.6 48.7 25.4 48.4 25.2 48.05 24.75 47.75 24.3 47.55 23.4 47.3
L 23.3 44.95
Q 24.1 44.95 25 45.3
L 25.3 44.5
Q 24.3 44.1 23.25 44.15
L 23.2 43.1
M 21.55 46
Q 21.55 45.6 21.75 45.35 22.05 45.05 22.55 44.95
L 22.65 47.05
Q 22.05 46.85 21.75 46.65 21.55 46.4 21.55 46
M 23.4 48.25
Q 24.05 48.45 24.35 48.7 24.6 48.9 24.65 49.3 24.65 50.1 23.55 50.35
L 23.4 48.25
M 41.05 50.45
Q 41.05 50.85 41.3 51.05 41.45 51.25 41.75 51.25 42.1 51.2 42.3 51 42.45 50.8 42.45 50.45 42.45 50.05 42.2 49.85 42.1 49.65 41.7 49.65 41 49.7 41.05 50.45
M 37.45 50.6
Q 37.45 50.95 37.7 51.15 37.85 51.35 38.15 51.35 38.55 51.35 38.7 51.15 38.95 50.85 38.9 50.5 38.85 50.15 38.65 50.05 38.5 49.8 38.15 49.8 37.8 49.8 37.65 50.05 37.4 50.25 37.45 50.6
M 38.5 43
L 37.3 43.05 37.75 48.9 38.45 48.9 38.5 43
M 29.1 44.05
Q 28.05 44.7 27.5 45.85 26.95 47 27 48.45 27.1 50.45 28.25 51.5 29.4 52.55 31.45 52.45 32.75 52.4 33.85 51.95
L 33.85 51.15
Q 32.6 51.65 31.4 51.7 29.7 51.8 28.8 50.9 27.9 50.05 27.8 48.4 27.75 47.1 28.25 46.15 28.7 45.2 29.55 44.65 30.45 44.1 31.65 44.05 32.65 44 33.45 44.4 34.15 44.75 34.6 45.5 35.05 46.25 35.05 47.25 35.1 48.2 34.85 48.8 34.6 49.4 34.05 49.4 33.35 49.45 33.3 48.5
L 33.35 45.75
Q 32.95 45.6 32.45 45.6 31.95 45.5 31.6 45.5 30.9 45.55 30.3 45.9 29.8 46.25 29.5 46.85 29.25 47.4 29.25 48.15 29.3 49.15 29.8 49.7 30.3 50.3 31.15 50.25 31.7 50.2 32.15 49.95 32.55 49.65 32.7 49.2
L 32.75 49.15
Q 32.85 49.65 33.25 49.85 33.5 50.1 34 50.1 34.6 50.1 35 49.7 35.45 49.3 35.7 48.65 35.9 48 35.85 47.25 35.8 46 35.3 45.1 34.7 44.15 33.8 43.75 32.8 43.3 31.65 43.35 30.25 43.35 29.1 44.05
M 31.6 46.25
Q 32.05 46.2 32.45 46.35
L 32.45 47.75
Q 32.4 49.45 31.3 49.5 30.25 49.6 30.15 48.15 30.1 47.3 30.5 46.8 30.9 46.25 31.6 46.25
M 43.45 43.25
Q 42.85 42.75 41.75 42.8 40.6 42.85 39.55 43.4
L 40 44.2
Q 40.5 43.95 40.9 43.8 41.3 43.7 41.75 43.7 42.45 43.65 42.8 43.95 43.2 44.2 43.2 44.75 43.2 45.05 43.15 45.3 43.05 45.5 42.85 45.75 42.7 46 42.1 46.5 41.6 46.95 41.4 47.35 41.2 47.8 41.25 48.5
L 41.25 48.8 42.05 48.75 42.05 48.55
Q 42.05 48.05 42.15 47.7 42.35 47.4 42.85 46.9 43.5 46.35 43.75 46.05 43.95 45.75 44.05 45.4 44.15 45.1 44.15 44.7 44.1 43.75 43.45 43.25
M 50.45 42.6
L 49.65 42.6 49.25 45 47.65 45.1 48 42.65 47.2 42.7 46.8 45.1 45.2 45.2 45.2 45.95 46.75 45.9 46.4 47.7 44.85 47.8 44.85 48.55 46.3 48.5 46 50.85 46.8 50.85 47.15 48.5 48.75 48.4 48.35 50.8 49.15 50.8 49.55 48.4 51.25 48.3 51.2 47.55 49.65 47.65 49.95 45.75 51.5 45.7 51.5 44.95 50.1 45 50.45 42.6
M 47.2 47.7
L 47.55 45.85 49.15 45.75 48.85 47.65 47.2 47.7 Z"/>
</g>

<g id="Layer0_0_MEMBER_0_FILL">
<path fill="#2F2F2F" stroke="none" d="
M 57.2 30.9
Q 56.5 30.6 55.75 30.9
L 44.05 36.25
Q 43.3 36.65 42.5 36.6 41.45 36.6 40.95 36.05 40.9 35.95 40.3 34.95 39.9 34.2 39.2 34.45 38.7 34.7 38.6 35.65 38.5 36.3 38.55 36.85 38.75 38.45 39.4 39.75 40.2 41.3 41.1 42.05 42.45 43.4 44.5 44.1 46.6 44.8 48.85 44.7 50.65 44.65 52.45 43.9 56.75 42.1 58.15 38.2 59.25 35 58.2 31.95 57.95 31.2 57.2 30.9 Z"/>
</g>

<g id="Layer0_0_MEMBER_1_FILL">
<path fill="#2F2F2F" stroke="none" d="
M 13.25 31.95
Q 12.15 35 13.3 38.2 14.7 42.1 19 43.9 20.8 44.65 22.55 44.7 24.8 44.8 26.95 44.1 29.05 43.35 30.35 42.05 31.4 41 32 39.75 32.65 38.45 32.9 36.85 32.95 36.3 32.9 35.65 32.75 34.7 32.25 34.45 31.55 34.2 31.15 34.95 30.95 35.3 30.5 36.05 29.95 36.6 28.95 36.6 28.45 36.65 27.9 36.45
L 15.7 30.9
Q 14.95 30.6 14.2 30.9 13.5 31.2 13.25 31.95 Z"/>
</g>

<path id="Layer2_0_1_STROKES" stroke="#2F2F2F" stroke-width="1" stroke-linejoin="round" stroke-linecap="round" fill="none" d="
M 24.1 41.55
L 47.75 41
Q 47.85 41 48 41.05 48.6 41 49.9 41 51.5 41 53.45 42.8 55.4 44.55 55.45 47.3 55.45 50.05 53.8 51.95 52.05 53.75 50.35 53.8 48.65 53.9 47.8 53.85
L 24.9 54.35
Q 24.7 54.4 24.4 54.4 23.6 54.4 22.4 54.4 20.7 54.4 18.9 52.7 17.1 50.85 17 48.15 16.95 45.4 18.85 43.55 20.65 41.7 22.3 41.6 23.6 41.55 24.1 41.55 Z"/>
</defs>

<g id="Layer_1">
<g transform="matrix( 1, 0, 0, 1, 0,0) ">
<use xlink:href="#Layer3_0_FILL"/>
</g>
</g>

<g id="Layer_2">
<g transform="matrix( 1, 0, 0, 1, 0,0) ">
<use xlink:href="#Layer2_0_FILL"/>

<use xlink:href="#Layer2_0_1_STROKES"/>
</g>
</g>

<g id="_____1"/>

<g transform="matrix( 0.91302490234375, 0, 0, 0.91302490234375, 3.15,-4.05) ">
<use xlink:href="#Layer0_0_MEMBER_0_FILL"/>
</g>

<g transform="matrix( 0.91302490234375, 0, 0, 0.91302490234375, 3.15,-4.05) ">
<use xlink:href="#Layer0_0_MEMBER_1_FILL"/>
</g>
</svg>
